X:5
T: Ritter und Magd
N: Q0055D
O: Mitteleuropa, Deutschland (BRD) , Hessen, Wetterau
N: Moeglicher Taktwechsel zum 2/4 angemerkt.
R: Ballade, Betrug, Schwangerschaft, Tod, Selbstmord, Herr und Magd
M: 3/4
L: 1/8
K: G
DGA | B3ABc | d3
Bcd | e2d2c2 | B2z
GBd | A3cBd | G3
ABc | d2B2A2 | G2z

@@@ Tune index: 881
